48x48/places/folder-breeze-applications.svg

<svg xmlns="http://www.w3.org/2000/svg" width="48" height="48" version="1">
 <rect style="opacity:0.2" width="40" height="26" x="4" y="17" rx="2" ry="2"/>
 <path style="fill:#147eb8" d="M 4,34 C 4,35.108 4.892,36 6,36 H 42 C 43.108,36 44,35.108 44,34 V 12 C 44,10.892 43.108,10 42,10 H 24 C 21,10 20,6 17,6 H 6 C 4.892,6 4,6.892 4,8"/>
 <rect style="opacity:0.2" width="40" height="26" x="4" y="15" rx="2" ry="2"/>
 <rect style="fill:#f4f4f7" width="36" height="16" x="6" y="13" rx="2" ry="2"/>
 <rect style="fill:#57b8ec" width="40" height="26" x="4" y="16" rx="2" ry="2"/>
 <path style="opacity:0.1;fill:#f4f4f7" d="M 6,6 C 4.892,6 4,6.892 4,8 V 9 C 4,7.892 4.892,7 6,7 H 17 C 20,7 21,11 24,11 H 42 C 43.108,11 44,11.892 44,13 V 12 C 44,10.892 43.108,10 42,10 H 24 C 21,10 20,6 17,6 Z"/>
 <g style="fill:#106796" transform="matrix(1.1237034,0,0,1,-6.0661767,1.717392)">
  <path style="fill:#106796" d="m 29.573776,35.282608 -0.749596,-3 h -4.264944 l -0.723748,3 h -3.308562 c 0.758212,-3.153473 1.52504,-6.022617 2.300484,-8.607431 0.775445,-2.602047 1.525041,-5.066236 2.248789,-7.392569 h 3.463651 c 0.758212,2.343565 1.507808,4.833602 2.248788,7.470113 0.758213,2.619279 1.490577,5.462574 2.197092,8.529887 z M 26.73048,22.384385 25.153743,29.282608 h 3.127626 z"/>
 </g>
</svg>

<svg xmlns="http://www.w3.org/2000/svg" width="48" height="48" version="1"><rect style="opacity:.2" width="40" height="26" x="4" y="17" rx="2" ry="2"/><path style="fill:#147eb8" d="M4 34c0 1.108.892 2 2 2h36c1.108 0 2-.892 2-2V12c0-1.108-.892-2-2-2H24c-3 0-4-4-7-4H6c-1.108 0-2 .892-2 2"/><rect style="opacity:.2" width="40" height="26" x="4" y="15" rx="2" ry="2"/><rect style="fill:#f4f4f7" width="36" height="16" x="6" y="13" rx="2" ry="2"/><rect style="fill:#57b8ec" width="40" height="26" x="4" y="16" rx="2" ry="2"/><path style="opacity:.1;fill:#f4f4f7" d="M6 6c-1.108 0-2 .892-2 2v1c0-1.108.892-2 2-2h11c3 0 4 4 7 4h18c1.108 0 2 .892 2 2v-1c0-1.108-.892-2-2-2H24c-3 0-4-4-7-4z"/><path style="fill:#106796" d="m29.574 35.283-.75-3H24.56l-.724 3h-3.308a161.547 161.547 0 0 1 2.3-8.608 646.104 646.104 0 0 1 2.25-7.392h3.463a200.844 200.844 0 0 1 2.249 7.47c.758 2.619 1.49 5.462 2.197 8.53zM26.73 22.384l-1.576 6.899h3.127z" transform="matrix(1.1237 0 0 1 -6.066 1.717)"/></svg>
